assets/svg/ficon/file-archive-o.svg

<?xml version="1.0" encoding="utf-8"?>
<svg width="1792" height="1792" viewBox="0 0 1792 1792" xmlns="http://www.w3.org/2000/svg"><path d="M768 384v-128h-128v128h128zm128 128v-128h-128v128h128zm-128 128v-128h-128v128h128zm128 128v-128h-128v128h128zm700-388q28 28 48 76t20 88v1152q0 40-28 68t-68 28h-1344q-40 0-68-28t-28-68v-1600q0-40 28-68t68-28h896q40 0 88 20t76 48zm-444-244v376h376q-10-29-22-41l-313-313q-12-12-41-22zm384 1528v-1024h-416q-40 0-68-28t-28-68v-416h-128v128h-128v-128h-512v1536h1280zm-627-721l107 349q8 27 8 52 0 83-72.5 137.5t-183.5 54.5-183.5-54.5-72.5-137.5q0-25 8-52 21-63 120-396v-128h128v128h79q22 0 39 13t23 34zm-141 465q53 0 90.5-19t37.5-45-37.5-45-90.5-19-90.5 19-37.5 45 37.5 45 90.5 19z" fill="#60be86"/></svg>

<svg width="1792" height="1792" xmlns="http://www.w3.org/2000/svg"><path d="M768 384V256H640v128h128zm128 128V384H768v128h128zM768 640V512H640v128h128zm128 128V640H768v128h128zm700-388q28 28 48 76t20 88v1152q0 40-28 68t-68 28H224q-40 0-68-28t-28-68V96q0-40 28-68t68-28h896q40 0 88 20t76 48zm-444-244v376h376q-10-29-22-41l-313-313q-12-12-41-22zm384 1528V640h-416q-40 0-68-28t-28-68V128H896v128H768V128H256v1536h1280zM909 943l107 349q8 27 8 52 0 83-72.5 137.5T768 1536t-183.5-54.5T512 1344q0-25 8-52 21-63 120-396V768h128v128h79q22 0 39 13t23 34zm-141 465q53 0 90.5-19t37.5-45-37.5-45-90.5-19-90.5 19-37.5 45 37.5 45 90.5 19z" fill="#60be86"/></svg>
